X:1
T:The Judgment Day Is Coming
T:The Judgment Day Is Coming
T:Thomas Benjamin Mosley
T:Elisha Albright Hoffman, 1906
T:Public Domain Courtesy of the Cyber Hymnal™
T:Public Domain Courtesy of the Cyber Hymnal™
C:Thomas Benjamin Mosley
Z:Public Domain
Z:Courtesy of the Cyber Hymnal™
%%score ( 1 2 ) ( 3 4 )
L:1/8
Q:1/4=110
M:4/4
K:G
V:1 treble 
V:2 treble 
V:3 bass 
V:4 bass 
V:1
 D2 | [GB]3 [FB] [EB]2 [FB]2 | [GB] [DB]3- [DB]2 [GB]2 | [Ad]3 [Gd] [Fd]2 d2 | [GB]6 D2 | %5
w: 1.~The|judg- ment day is|com- ing, * We|warn you faith- ful-|ly; A|
w: 2.~The|shoals and rocks hold|per- il * And|dan- ger, soul, for|thee; On|
 [GB]3 [FB] [EB]2 [FB]2 | [GB] [DB]3- [DB]2 [DB]2 | [DA]3 [DA] [^CA]2 [CA]2 | D6 D2 | %9
w: shel- ter find in|Je- sus; * Be|saved e- ter- nal-|ly. We|
w: Je- sus cast thy|an- chor, * And|find se- cu- ri-|ty; When|
 [Dc]3 [Dc] [Dc]2 [Dc]2 | [DB] [DB]3- [DB]2 [DB]2 | [^DB]3 [DB] [EB]2 [FA]2 | [E^G]6 [=FG]2 | %13
w: plead with fer- vent|plead- ing: * From|wrath and per- il|flee, And|
w: thou art called to|judg- ment, * What|then will be thy|plea? The|
 [Ee]3 [Fe] [Ge]2 [Ae]2 | [Bd] [GB]3- [GB]2 [DG]2 | [EG]3 [^CG] [DG]2 [DF]2 | [DG]6 || %17
w: find in Christ a|ref- uge, * A|hid- ing place for|thee.|
w: blood of Je- sus|on- ly * Will|then a- vail for|thee.|
"^Refrain" D2 | [Dc]3 [Dc] [Dc]2 [Dc]2 | [DB] [DB]3- [DB]2 [DB]2 | [^DB]3 [DB] [EB]2 [FA]2 | %21
w: ||||
w: ||||
 [E^G]6 [=FG]2 | [Ee]3 [Fe] [Ge]2 [Ae]2 | [Bd] [GB]3- [GB]2 [DG]2 | [EG]3 [^CG] [DG]2 [DF]2 | %25
w: ||||
w: ||||
 [DG]6 |] %26
w: |
w: |
V:2
 D2 | x8 | x8 | x6 (GA) | x6 D2 | x8 | x8 | x8 | D6 D2 | x8 | x8 | x8 | x8 | x8 | x8 | x8 | x6 || %17
 D2 | x8 | x8 | x8 | x8 | x8 | x8 | x8 | x6 |] %26
V:3
 D,2 | [G,,G,B,]3 [G,,G,A,] [G,,G,]2 [G,,G,A,]2 | [G,,G,B,] [G,,G,]3- [G,,G,]2 G,2 | %3
w: ~|~ ~ ~ ~|~ ~ * ~|
 [D,C]3 [D,B,] [D,A,]2 (B,C) | [G,D]6 D,2 | [G,,G,B,]3 [G,,G,A,] [G,,G,]2 [G,,G,A,]2 | %6
w: ~ ~ ~ ~ *|~ ~|~ ~ ~ ~|
 [G,,G,B,] [G,,G,]3- [G,,G,]2 [G,,G,]2 | [A,,F,]3 [A,,F,] [A,,E,]2 [A,,G,]2 | [D,F,]6 F,2 | %9
w: ~ ~ * ~|~ ~ ~ ~|~ ~|
 [D,F,]3 [E,G,] [F,A,]2 [D,F,]2 | G, G,3- G,2 [G,,G,]2 | [B,,F,]3 [B,,F,] [^C,F,]2 [^D,B,]2 | %12
w: ~ ~ ~ ~|~ ~ * ~|~ ~ ~ ~|
 [E,B,]6 [D,B,]2 | [C,C]3 [D,C] [E,C]2 [F,C]2 | [G,B,D] [G,D]3- [G,D]2 [G,B,]2 | %15
w: ~ ~|~ ~ ~ ~|~ ~ * ~|
 [E,^C]3 [_E,^A,] [D,B,]2 [D,=C]2 | [G,,G,B,]6 || F,2 | [D,F,]3 [E,G,] [F,A,]2 [D,F,]2 | %19
w: ~ ~ ~ ~|~|The|day of judg- ment|
 G, G,3- G,2 [G,,G,]2 | [B,,F,]3 [B,,F,] [^C,F,]2 [^D,B,]2 | [E,B,]6 [D,B,]2 | %22
w: hast- ens; * What|shall thy sen- tence|be? Re-|
 [C,C]3 [D,C] [E,C]2 [F,C]2 | [G,B,D] [G,D]3- [G,D]2 [G,B,]2 | [E,^C]3 [_E,^A,] [D,B,]2 [D,=C]2 | %25
w: deemed and saved thro’|Je- sus, * Or|lost e- ter- nal-|
 [G,,G,B,]6 |] %26
w: ly?|
V:4
 D,2 | x8 | x6 G,2 | x6 D,2 | x6 D,2 | x8 | x8 | x8 | x6 F,2 | x8 | G, G,3- G,2 x2 | x8 | x8 | x8 | %14
 x8 | x8 | x6 || F,2 | x8 | G, G,3- G,2 x2 | x8 | x8 | x8 | x8 | x8 | x6 |] %26

